X:2857
T:Charlie Harris' Polka
R:polka
H:A polka version of Charlie Harris' Reel
D:Kevin Burke: Up Close
Z:id:hn-polka-80
M:2/4
L:1/8
K:D
d>B|:AF DF|EF DF|AF AB|e2 d>B|AF DF|EF DF|AF AB|1 d2 c>B:|2 d2 dA||
d2 fd|ef dB|AF AB|e2 dA|d2 fd|ef dB|AF AB|d2 dA|
d2 fd|ef dB|AF AB|e2 ef|df f/e/f/g/|af f>g|af ef|d2||


